gkit/src/components/icons/assets/arrow_download_24_filled.svg

<svg width="24" height="24" viewBox="0 0 24 24" fill="none" xmlns="http://www.w3.org/2000/svg">
<path d="M5.25 20.5005H18.7477C19.1619 20.5005 19.4977 20.8363 19.4977 21.2505C19.4977 21.6302 19.2155 21.944 18.8494 21.9936L18.7477 22.0005H5.25C4.83579 22.0005 4.5 21.6647 4.5 21.2505C4.5 20.8708 4.78215 20.557 5.14823 20.5073L5.25 20.5005H18.7477H5.25ZM11.8834 2.00282L12 1.99609C12.5128 1.99609 12.9355 2.38213 12.9933 2.87947L13 2.99609V15.5861L16.2941 12.2933C16.6546 11.9329 17.2218 11.9052 17.6141 12.2103L17.7083 12.2935C18.0687 12.654 18.0964 13.2212 17.7913 13.6135L17.7081 13.7077L12.7105 18.7043C12.3502 19.0645 11.7833 19.0924 11.391 18.7878L11.2968 18.7047L6.29338 13.7081C5.90259 13.3178 5.90215 12.6847 6.29241 12.2939C6.65265 11.9331 7.21986 11.905 7.61236 12.2098L7.70662 12.2929L11 15.5811V2.99609C11 2.48326 11.386 2.06059 11.8834 2.00282L12 1.99609L11.8834 2.00282Z" fill="#212121"/>
</svg>

<svg xmlns="http://www.w3.org/2000/svg" width="24" height="24" preserveAspectRatio="xMidYMid meet" viewBox="0 0 24 24">
<path fill="currentColor" d="M5.25 20.5h13.498a.75.75 0 0 1 .101 1.494l-.101.006H5.25a.75.75 0 0 1-.102-1.493l.102-.007h13.498H5.25Zm6.633-18.497L12 1.996a1 1 0 0 1 .993.883l.007.117v12.59l3.294-3.293a1 1 0 0 1 1.32-.083l.094.083a1 1 0 0 1 .083 1.32l-.083.095l-4.997 4.996a1 1 0 0 1-1.32.084l-.094-.083l-5.004-4.997a1 1 0 0 1 1.32-1.498l.094.083L11 15.58V2.996a1 1 0 0 1 .883-.993L12 1.996l-.117.007Z"/>
</svg>
